!!!OTL: 1559. Brechhausliedchen.
!!!ARE: Europa, Mitteleuropa, Deutschland, Kuhlaendchen
!!!SCT: E1559
!!!TXL: @@BAR
!!!YEM: Copyright 1995, estate of Helmut Schaffrath.
**kern	**text
*ICvox	*
*M2/4	*
*k[f#]	*
*G:	*
{8d	Fritʒ
=1	=1
8g	Steff
8g	der
8b	ſteht
8g	hübſch
=2	=2
(8.ddL	fei-
16eeJ	.
8dd)}	-ne,
{8b	er
=3	=3
8dd	trägt
8dd	a
8cc	ſchwarʒbraun
8a	.
=4	=4
8g	Hü-
8g	-te-
8b}	-lein,
{8d	das
=5	=5
8g	Hüt-
8g	-lein
8b	ſteht
8g	ihm
=6	=6
8.ddL	bra-
16eeJ	.
8dd}	-ve,
{8b	die
=7	=7
8dd	Sien
8dd	die
(8ddq	.
8cc)	hat
8a	ihn
=8	=8
4f#	ger-
8g}	-ne.
==	==
!!!AGN: Staende -, Bauern - Lied, Flachsbrechen, bei der Arbeit
!!!ONB: ESAC (Essen Associative Code) Database: ERK3
!!!AMT: simple duple
!!!AIN: vox
!!!EED: Helmut Schaffrath
!!!EEV: 1.0
!!!GTL: Staendelieder (Berufslieder). 6. Bauernlieder (von und gegen Bauern).
!!!URL-scan: https://rosdok.uni-rostock.de/mcrviewer/recordIdentifier/rosdok_ppn745177999/iview2/phys_0400.iview2?x=-128.77276441889285&y=15.30177457886748&scale=0.5870222003877487&rotation=0&layout=singlePageLayout
!!!ENC: Anna Maria Matuszewska
!!!EEV: 2025/03/01
*-	*-
